assets/img/icon-pc.svg

<?xml version="1.0" encoding="UTF-8" standalone="no"?>
<svg width="55px" height="36px" viewBox="0 0 55 36" version="1.1" xmlns="http://www.w3.org/2000/svg" xmlns:xlink="http://www.w3.org/1999/xlink">
    <!-- Generator: Sketch 39 (31667) - http://www.bohemiancoding.com/sketch -->
    <title>Page 1</title>
    <desc>Created with Sketch.</desc>
    <defs></defs>
    <g id="Page-1" stroke="none" stroke-width="1" fill="none" fill-rule="evenodd">
        <g stroke="#939597">
            <path d="M48.166,31.9834 C48.166,32.3174 47.895,32.5884 47.561,32.5884 L7.381,32.5884 C7.047,32.5884 6.775,32.3174 6.775,31.9834 L6.775,1.1054 C6.775,0.7714 7.047,0.5004 7.381,0.5004 L47.561,0.5004 C47.895,0.5004 48.166,0.7714 48.166,1.1054 L48.166,31.9834 L48.166,31.9834 Z" id="Stroke-1"></path>
            <path d="M45.6279,29.5791 C45.6279,29.9051 45.3639,30.1701 45.0379,30.1701 L10.2189,30.1701 C9.8929,30.1701 9.6279,29.9051 9.6279,29.5791 L9.6279,3.6731 C9.6279,3.3471 9.8929,3.0831 10.2189,3.0831 L45.0379,3.0831 C45.3639,3.0831 45.6279,3.3471 45.6279,3.6731 L45.6279,29.5791 L45.6279,29.5791 Z" id="Stroke-3"></path>
            <path d="M54.5,34.2812 C54.5,34.6062 54.235,34.8712 53.91,34.8712 L1.09,34.8712 C0.765,34.8712 0.5,34.6062 0.5,34.2812 L0.5,33.1002 C0.5,32.7742 0.765,32.5112 1.09,32.5112 L53.91,32.5112 C54.235,32.5112 54.5,32.7742 54.5,33.1002 L54.5,34.2812 L54.5,34.2812 Z" id="Stroke-5"></path>
            <path d="M15.8936,26.5576 L15.8936,11.9646 C15.8936,11.2146 16.5006,10.6076 17.2506,10.6076 L20.1926,10.6076 C20.9426,10.6076 21.5496,11.2146 21.5496,11.9646 L21.5496,26.5576" id="Stroke-7" stroke-linecap="round" stroke-linejoin="round"></path>
            <path d="M24.7441,26.5576 L24.7441,14.6796 C24.7441,13.9296 25.3521,13.3226 26.1021,13.3226 L29.0441,13.3226 C29.7931,13.3226 30.4011,13.9296 30.4011,14.6796 L30.4011,26.5576" id="Stroke-9" stroke-linecap="round" stroke-linejoin="round"></path>
            <path d="M33.3916,26.5576 L33.3916,8.5716 C33.3916,7.8216 33.9986,7.2136 34.7486,7.2136 L37.6906,7.2136 C38.4406,7.2136 39.0476,7.8216 39.0476,8.5716 L39.0476,26.5576" id="Stroke-11" stroke-linecap="round" stroke-linejoin="round"></path>
        </g>
    </g>
</svg>

<svg width="55" height="36" viewBox="0 0 55 36" xmlns="http://www.w3.org/2000/svg"><title>Page 1</title><g stroke="#939597" fill="none" fill-rule="evenodd"><path d="M48.166 31.983a.605.605 0 0 1-.605.605H7.381a.606.606 0 0 1-.606-.605V1.105c0-.334.272-.605.606-.605h40.18c.334 0 .605.271.605.605v30.878z"/><path d="M45.628 29.58a.59.59 0 0 1-.59.59h-34.82a.592.592 0 0 1-.59-.59V3.672a.59.59 0 0 1 .59-.59h34.82a.59.59 0 0 1 .59.59V29.58zm8.872 4.701c0 .325-.265.59-.59.59H1.09a.591.591 0 0 1-.59-.59v-1.18a.59.59 0 0 1 .59-.59h52.82a.59.59 0 0 1 .59.59v1.18z"/><path d="M15.894 26.558V11.965c0-.75.607-1.357 1.357-1.357h2.942c.75 0 1.357.607 1.357 1.357v14.593m3.194 0V14.68c0-.75.608-1.357 1.358-1.357h2.942c.75 0 1.357.607 1.357 1.357v11.878m2.991 0V8.572c0-.75.607-1.358 1.357-1.358h2.942c.75 0 1.357.608 1.357 1.358v17.986" stroke-linecap="round" stroke-linejoin="round"/></g></svg>
